brandFactory_export/3.Masa/Descargar de la nube_3Masa.svg

<?xml version="1.0" encoding="UTF-8"?>
<svg width="24px" height="24px" viewBox="0 0 24 24" version="1.1" xmlns="http://www.w3.org/2000/svg" xmlns:xlink="http://www.w3.org/1999/xlink">
    <title>3.Masa/Descargar de la nube_3Masa</title>
    <g id="Symbols" stroke="none" stroke-width="1" fill="none" fill-rule="evenodd">
        <g id="3.Masa/Descargar-de-la-nube_3Masa" fill="#5CB615" fill-rule="nonzero">
            <path d="M17.1966387,16.712605 L16.702521,17.2302521 L11.8252101,21.6806723 L7.02857143,17.2403361 L6.42689076,16.6016807 C6.31596639,16.487395 6.28571429,16.3193277 6.34957983,16.1747899 C6.40672269,16.0201681 6.54789916,15.9193277 6.71260504,15.9193277 L8.94453782,15.9193277 C9.02184874,15.9193277 9.09243697,15.8487395 9.09243697,15.7647059 L9.09243697,10.2521008 C9.09243697,10.0369748 9.27058824,9.85546218 9.48571429,9.85546218 L14.1277311,9.85546218 C14.3462185,9.85546218 14.5210084,10.0302521 14.5210084,10.2487395 L14.5210084,10.2521008 L14.5411765,15.8789916 C14.5411765,15.9596639 14.6016807,16.0302521 14.6890756,16.0302521 L16.9109244,16.0302521 C17.0789916,16.0302521 17.2168067,16.1210084 17.2773109,16.2722689 C17.3344538,16.4268908 17.3042017,16.5882353 17.1966387,16.712605 M17.9865546,6.72605042 C16.5747899,2.2487395 11.6672269,2.01344538 10.6823529,2.01344538 C9.40840336,2.01344538 3.1394958,2.3697479 3.00168067,9.31764706 C1.73781513,9.79495798 0,11.0151261 0,14.1445378 C0,17.9831933 2.61512605,19.3445378 5.07563025,19.3445378 L7.80840336,19.3344538 L11.1731092,22.4504202 C11.3512605,22.6016807 11.5865546,22.6823529 11.8352941,22.6823529 C12.0806723,22.6823529 12.3193277,22.6016807 12.5176471,22.4403361 L15.9428571,19.2806723 L17.4151261,19.2705882 C18.4504202,19.2705882 23.6235294,18.9747899 23.6235294,12.9714286 C23.6235294,7.73445378 19.6840336,6.8605042 17.9865546,6.72605042" id="Descargar-de-la-nube_3Masa"></path>
        </g>
    </g>
</svg>

<svg width="24" height="24" viewBox="0 0 24 24" xmlns="http://www.w3.org/2000/svg"><path d="M17.197 16.713l-.494.517-4.878 4.45-4.796-4.44-.602-.638a.387.387 0 01-.077-.427.384.384 0 01.363-.256h2.232c.077 0 .147-.07.147-.154v-5.513c0-.215.179-.397.394-.397h4.642c.218 0 .393.175.393.394v.003l.02 5.627c0 .08.06.151.148.151h2.222c.168 0 .306.091.366.242a.43.43 0 01-.08.44m.79-9.986c-1.412-4.477-6.32-4.713-7.305-4.713-1.274 0-7.543.357-7.68 7.305C1.738 9.795 0 11.015 0 14.145c0 3.838 2.615 5.2 5.076 5.2l2.732-.01 3.365 3.115c.178.152.414.232.662.232.246 0 .484-.08.683-.242l3.425-3.16 1.472-.01c1.035 0 6.209-.295 6.209-6.299 0-5.237-3.94-6.11-5.637-6.245" fill="#5CB615" fill-rule="nonzero"/></svg>
